X: 20091
T: Ratling Roring Willie
T: Rattling Roaring Willie
%R: slip-jig
B: James Oswald "The Caledonian Pocket Companion" v.2 p.9 #1
Z: 2019 John Chambers <jc:trillian.mit.edu>
M: 9/8
L: 1/16
K: Amix
%%slurgraces 1
%%graceslurs 1
%%continueall 1
"_Brisk"e2 |\
Tc4A2 A2B2A2 c2e2f2 | {f}g4e2 d2(BcdB) d4f2 | Te4A2 A2(cB)A2 A2e2^g2 | a2^g2e2 e2c2A2 e4(f^g) |\
a2(f^g)a2 e2c2A2 c2e2f2 | =g4e2 G2(BcdB) d4B2 | c2e2c2 d2f2d2 e2a2e2 | c2A2c2 B2^G2B2 A4 :: f^g |\
a2c2A2 e2c2A2 e2c2A2 | =g2B2G2 d2B2G2 d4(f^g) | a2c2A2 e2c2A2 e2c2A2 | a2^g2f2 e2c2A2 e4(f^g) |\
a2(f^gaf) e2(cdec) A2(.cdec) | =g2(efge) G2(BcdB) d4B2 | Tc4d2 e2f2^g2 a2e2f2 | e2c2A2 d2B2^G2 A4 :: e2 |\
Tc4A2 e2c2A2 a2c2A2 | =g4b2 G2(BcdB) d4e2 | Tc4A2 (edcB)A2 (edcB)A2 | (a^g)(ag)(ag) a2c2A2 e4(f^g) |\
(a^g)(ag)(ag) a2c2A2 e2c2A2 | =gfgfgf g2G2B2 d4B2 | c2e2c2 d2f2b2 ^g2e2g2 | a4c2 d2B2^G2 A4 :: (f^g) |\
(a^g)(ag)(ag) a2c2A2 e2c2A2 | =g2b2G2 g2d2B2 d4(f^g) | (a^g)(ag)(ag) a2c2A2 e2c2A2 | (a^g)(ag)(ag) a2c2A2 e4(f^g) |\
(a^gfedc) (a^gfedc) (fedcBA) | B2=g2G2 G2(BcdB) d4B2 | c2e2a2 f2d2b2 ^g2e2g2 | (a^gfedc) d2B2^G2 A4 :|
